svgs/thin/square-star.svg

<svg xmlns="http://www.w3.org/2000/svg" viewBox="0 0 448 512"><!--! Font Awesome Pro 6.4.2 by @fontawesome - https://fontawesome.com License - https://fontawesome.com/license (Commercial License) Copyright 2023 Fonticons, Inc. --><path d="M64 48C37.5 48 16 69.5 16 96V416c0 26.5 21.5 48 48 48H384c26.5 0 48-21.5 48-48V96c0-26.5-21.5-48-48-48H64zM0 96C0 60.7 28.7 32 64 32H384c35.3 0 64 28.7 64 64V416c0 35.3-28.7 64-64 64H64c-35.3 0-64-28.7-64-64V96zM175.7 202.2L94.7 214l58.6 57.2c3.8 3.7 5.5 9 4.6 14.2L144.1 366l72.5-38.1c4.7-2.5 10.2-2.5 14.9 0L303.9 366l-13.8-80.7c-.9-5.2 .8-10.5 4.6-14.2L353.3 214l-81-11.8c-5.2-.8-9.7-4-12-8.8L224 120l-36.2 73.4c-2.3 4.7-6.8 8-12 8.8zm179.9-4.1c6 .9 11 5.1 12.9 10.9s.3 12.2-4 16.4l-58.6 57.2 13.8 80.7c1 6-1.4 12.1-6.4 15.6s-11.5 4.1-16.8 1.2L224 342.1l-72.5 38.1c-5.4 2.8-11.9 2.4-16.9-1.2s-7.4-9.6-6.4-15.6l13.8-80.7L83.5 225.4c-4.4-4.3-5.9-10.6-4-16.4s6.9-10 12.9-10.9l81.1-11.8 36.2-73.4c2.7-5.5 8.3-8.9 14.3-8.9s11.7 3.5 14.3 8.9l36.2 73.4 81 11.8z"/></svg>

<svg xmlns="http://www.w3.org/2000/svg" viewBox="0 0 448 512"><!--! Font Awesome Pro 6.1.1 by @fontawesome - https://fontawesome.com License - https://fontawesome.com/license (Commercial License) Copyright 2022 Fonticons, Inc. --><path d="M355.6 198.1C361.7 199 366.7 203.2 368.6 209C370.4 214.8 368.9 221.2 364.5 225.4L305.9 282.6L319.7 363.3C320.7 369.3 318.3 375.4 313.3 378.1C308.4 382.6 301.9 383 296.5 380.2L224 342.1L151.5 380.2C146.1 383 139.6 382.6 134.7 378.1C129.7 375.4 127.3 369.3 128.3 363.3L142.1 282.6L83.49 225.4C79.13 221.2 77.56 214.8 79.44 209C81.32 203.2 86.33 199 92.36 198.1L173.4 186.4L209.7 112.9C212.3 107.5 217.9 103.1 224 103.1C230.1 103.1 235.7 107.5 238.3 112.9L274.6 186.4L355.6 198.1zM94.66 213.1L153.3 271.1C157.1 274.8 158.8 280.1 157.9 285.3L144.1 366L216.6 327.9C221.2 325.5 226.8 325.5 231.4 327.9L303.9 366L290.1 285.3C289.2 280.1 290.9 274.8 294.7 271.1L353.3 213.1L272.3 202.2C267.1 201.4 262.6 198.2 260.2 193.4L224 120L187.8 193.4C185.4 198.2 180.9 201.4 175.7 202.2L94.66 213.1zM0 96C0 60.65 28.65 32 64 32H384C419.3 32 448 60.65 448 96V416C448 451.3 419.3 480 384 480H64C28.65 480 0 451.3 0 416V96zM16 96V416C16 442.5 37.49 464 64 464H384C410.5 464 432 442.5 432 416V96C432 69.49 410.5 48 384 48H64C37.49 48 16 69.49 16 96z"/></svg>
